X: 11
T: Mother is Coming
N: Derived from pawnee11.krn
O: Oklahoma, U.S.A.
N: from Pawnee Music by Frances Densmore, 1926
Z: transcribed to **kern format by David Huron, August 2000
C: Skidi and Chaui Bands, 1919
L: 1/8
M: 2/4
Q: 1/4=88
K: B clef=bass
%%linebreak <none>
D D [I:setbarnb 1]| 
D2D2 | 
D E C B, | 
C2B,2 ]|:  
B,3C [I:setbarnb 5]| 
!fermata!B,4 | 
B, B, D D | 
D E C B, | 
C2B,2 | 
D B, F, D, | 
F,2D,2 | 
D,2D,2 | 
D,2D,3/ B/[M:3/4] | 
(3B, F, F,F,2D,2[M:2/4] | 
F, D, C, B,, | 
C,2B,,2 | 
B,,2B,,2 | 
B,,4 | 
C2B,2 | 
D2C2 :|]  



